X:1
T:Standin In The Need of Prayer
T:Where Am the Chil'ren
T:Copyright 1918 by Homer A. Rodeheaver
T:Chas H. Gabriel
T:Rodeheaver's Plantation Melodies
T:Rodeheaver's Plantation Melodies
Z:Rodeheaver's Plantation Melodies
%%score [ 1 2 3 4 ]
L:1/8
Q:1/4=100
M:4/4
K:F
V:1 treble nm="Soprano" snm="S."
V:2 treble nm="Alto" snm="A."
V:3 bass nm="Tenor" snm="T."
V:4 bass nm="Bass" snm="B."
V:1
 F2 F>G A2 GF | A2 c2 c4 | FFAA G2 F2 | (D2 F2) F4 :| d2 d>d d2 d>A | c2 c2 c4 | c2 G>^F GABc | %7
 d2 c2 A4 | d2 d>d d2 d>A | c2 c2 c4 | ccAA G2 F2 | (D2 F2) F2 |:"^CHORUS" c2 | F2 A6 | A2 c6 | %15
 c2 G2 G2 d2 | d2 c2 A2 c2 | F2 A6 | A2 c6 |1 c2 G2 e3 d | c2 c2 c2 :|2 c2 B2 A3 G | F6 z2 |] %23
V:2
 F2 F>G A2 GF | A2 c2 c4 | CCFF E2 C2 | D4 C4 :| d2 d>d d2 d>A | c2 c2 c4 | c2 G>^F GABc | %7
w: Where am de chi'- ren a-|sing- in' sweet,|Hal- le- hal- le- lu- jah,|my Lord!|Dar on de sho' now I|see dem stan',|Sing- in' de glo- ry ob de|
w: Once dat I used for to|love to meet,||||||
 d2 c2 A4 | d2 d>d d2 d>A | c2 c2 c4 | FFFF C2 C2 | D4 C2 |: E2 | F2 F6 | F2 F6 | E2 E2 E2 E2 | %16
w: an- gel ban',|Shou- in' a- way in de|gold- en lan',|Hal- le- hal- le- lu- jah,|my Lord!|Den,|chil- 'ren,|chil- 'ren,|chil- 'ren, meet me|
w: |||||||||
 F2 F2 F2 F2 | F2 F6 | F2 F6 |1 E2 E2 G3 F | E2 c2 c2 :|2 E2 E2 F3 C | C6 z2 |] %23
w: in de King- dom;|Chil- 'ren,|chil- 'ren,|Meet me ob- er|dar! den, den,|Meet me ob- er|dar!|
w: |||||||
V:3
 z8 | z8 | A,A,CC B,2 A,2 | B,4 [F,A,]4 :| B,,2 z2 [B,D]2 z2 | [A,C]2 [B,C]2 [A,C]4 | %6
 C,2 z2 [CE]2 z2 | B,2 A,2 [A,C]4 | B,,2 z2 [B,D]2 z2 | [A,C]2 [B,C]2 [A,C]4 | A,A,CC B,2 A,2 | %11
 B,4 A,2 |: B,2 | A,2 C6 | C2 A,6 | G,2 C2 C2 B,2 | B,2 A,2 C2 A,2 | A,2 C6 | C2 A,6 |1 %19
 C2 C2 C3 =B, | C2 C2 C2 :|2 G,2 D2 C3 B, | [F,A,]6 z2 |] %23
V:4
 z8 | z8 | F,F,F,F, F,2 F,2 | B,,4 F,,4 :| B,,2 z2 F,2 z2 | F,2 G,2 F,4 | C,2 z2 [G,B,]2 z2 | %7
 F,2 F,2 F,4 | B,,2 z2 F,2 z2 | F,2 G,2 F,4 | F,F,F,F, F,2 F,2 | B,,4 F,2 |: C,2 | F,2 F,6 | %14
 F,2 F,6 | C,2 C,2 C,2 C,2 | F,2 F,2 F,2 F,2 | F,2 F,6 | %18
"_1. Where am de chil'ren a singin' sweet, Halle-hallelujah, my Lord!\n    Once dat I used fot to love to meet, Halle-hallelujah, my Lord!\n    Dar on de sho' now I see dem stan', Singin' de glory ob de angel ban',\n    Shoutin' away in de golden lan', Halle-hallelujah, my Lord! \n\n2. Loud in de meetin' day used ter shout, Halle-hallelujah, my Lord!\n    \"Neber de light ob de Lamb go out!\", Halle-hallelujah, my Lord!\n    Way ober Jordan dey shout an' sing, Loud do de heab'ns wid de music ring,\n    Wearin' de robes ob a mighty King, Halle-hallelujah, my Lord!\n\n3. O may de good Lord abless my soul, Halle-hallelujah, my Lord!\n    Show me de way to de heab'nly goal, Halle-hallelujah, my Lord!\n    Wash'd in de blood ob de Lamb I'll fly Wid hallelujah to my home on high,\n    Dar wid de brodders no more to die, Halle-hallelujah, my Lord!" F,2 F,6 |1 %19
 G,2 G,2 G,3 G, | C,2 C2 C2 :|2 C,2 C,2 C,3 C, | F,,6 z2 |] %23

